public/assets/img/material-icons/cabin.svg

<svg height="24" viewBox="0 0 24 24" width="24" xmlns="http://www.w3.org/2000/svg"><path d="m10 1c0 1.66-1.34 3-3 3-.55 0-1 .45-1 1h-2c0-1.66 1.34-3 3-3 .55 0 1-.45 1-1zm2 2-6 4.58v-1.58h-2v3.11l-3 2.29 1.21 1.59 1.79-1.37v9.38h16v-9.38l1.79 1.36 1.21-1.58zm1.94 4h-3.89l1.95-1.48zm-6.5 2h9.12l1.44 1.1v.9h-12v-.9zm10.56 4v2h-12v-2zm-12 6v-2h12v2z"/></svg>

<svg xmlns="http://www.w3.org/2000/svg" width="24" height="24" viewBox="0 0 24 24"><path d="M10 1c0 1.66-1.34 3-3 3-.55 0-1 .45-1 1H4c0-1.66 1.34-3 3-3 .55 0 1-.45 1-1h2zm2 2L6 7.58V6H4v3.11L1 11.4l1.21 1.59L4 11.62V21h16v-9.38l1.79 1.36L23 11.4 12 3zm1.94 4h-3.89L12 5.52 13.94 7zm-6.5 2h9.12L18 10.1v.9H6v-.9L7.44 9zM18 13v2H6v-2h12zM6 19v-2h12v2H6z"/></svg>
